X:1
T:President Lincoln's
L:1/8
M:4/4
I:linebreak $
K:G
V:1 treble 
V:1
|: DF | GDBG DGBG | FGAF G2 B2 | cedB cBAG | FGEF D2 cA | G2 BG D2 BG |$ FGAF GDBd | cedc B2 AF | %8
 GDcA G2 :: Bc | dGBd g2 fd | FGAB cDEF |$ GBdG ecAG | FGEF D2 cA | dGBd gfed | F2 GB c2 ge | %16
 dBGB AcFA | G2 g2 G2 :| %18
